chrome/images/task-list.svg

<?xml version="1.0" encoding="UTF-8" standalone="no"?>
<svg
   xmlns:dc="http://purl.org/dc/elements/1.1/"
   xmlns:cc="http://creativecommons.org/ns#"
   xmlns:rdf="http://www.w3.org/1999/02/22-rdf-syntax-ns#"
   xmlns:svg="http://www.w3.org/2000/svg"
   xmlns="http://www.w3.org/2000/svg"
   xmlns:sodipodi="http://sodipodi.sourceforge.net/DTD/sodipodi-0.dtd"
   xmlns:inkscape="http://www.inkscape.org/namespaces/inkscape"
   data-name="Layer 1"
   viewBox="0 0 64 64"
   version="1.1"
   id="svg24"
   sodipodi:docname="task-list.svg"
   inkscape:version="0.92.3 (2405546, 2018-03-11)"
   width="64"
   height="64">
  <metadata
     id="metadata30">
    <rdf:RDF>
      <cc:Work
         rdf:about="">
        <dc:format>image/svg+xml</dc:format>
        <dc:type
           rdf:resource="http://purl.org/dc/dcmitype/StillImage" />
        <dc:title></dc:title>
      </cc:Work>
    </rdf:RDF>
  </metadata>
  <defs
     id="defs28" />
  <sodipodi:namedview
     pagecolor="#ffffff"
     bordercolor="#666666"
     borderopacity="1"
     objecttolerance="10"
     gridtolerance="10"
     guidetolerance="10"
     inkscape:pageopacity="0"
     inkscape:pageshadow="2"
     inkscape:window-width="1600"
     inkscape:window-height="829"
     id="namedview26"
     showgrid="false"
     inkscape:zoom="7.375"
     inkscape:cx="27.813459"
     inkscape:cy="36.288951"
     inkscape:window-x="0"
     inkscape:window-y="0"
     inkscape:window-maximized="1"
     inkscape:current-layer="svg24" />
  <rect
     width="43.589832"
     height="55.173271"
     x="2.0378532"
     y="7.2991161"
     rx="4.151412"
     ry="3.940948"
     id="rect2"
     style="fill:#b28966;stroke-width:2.02240562" />
  <path
     d="M 33.173779,58.531442 H 8.2649718 A 2.0757062,1.9704741 0 0 1 6.1892655,56.560967 V 13.210539 A 2.0757062,1.9704741 0 0 1 8.2649718,11.240064 H 39.400565 a 2.0757062,1.9704741 0 0 1 2.075706,1.970475 v 37.438652"
     id="path4"
     inkscape:connector-curvature="0"
     style="fill:#ffffff;stroke-width:2.02240562" />
  <path
     d="M 29.022034,7.2991161 V 6.5946913 a 5.3926847,5.1192917 0 0 0 -4.654128,-5.1815192 5.1903449,4.9272098 0 0 0 -5.724403,4.900707 v 0.985237 h -2.075707 a 2.0757062,1.9704741 0 0 0 -2.075706,1.970474 v 3.9409489 a 2.0757062,1.9704741 0 0 0 2.075706,1.970473 H 31.09774 a 2.0757062,1.9704741 0 0 0 2.075707,-1.970473 V 9.2695901 A 2.0757062,1.9704741 0 0 0 31.09774,7.2991161 Z"
     id="path6"
     inkscape:connector-curvature="0"
     style="fill:#afaeb3;stroke-width:2.02240562" />
  <ellipse
     cx="23.832769"
     cy="7.2991161"
     id="circle8"
     style="fill:#ffffff;stroke-width:2.02240562"
     rx="1.037853"
     ry="0.985237" />
  <path
     d="m 33.173447,58.531442 v -5.911423 a 2.0757062,1.9704741 0 0 1 2.075706,-1.970473 h 6.227118 z"
     id="path10"
     inkscape:connector-curvature="0"
     style="fill:#afaeb3;stroke-width:2.02240562" />
  <ellipse
     cx="15.529943"
     cy="24.048145"
     id="circle12"
     style="fill:#5856f0;fill-opacity:1;stroke-width:2.02240562"
     rx="3.1135592"
     ry="2.9557111" />
  <ellipse
     cx="15.529943"
     cy="47.693832"
     id="circle14"
     style="fill:#5856f6;fill-opacity:1;stroke-width:2.02240562"
     rx="3.1135592"
     ry="2.9557111" />
  <ellipse
     cx="15.529943"
     cy="35.870991"
     id="circle16"
     style="fill:#5856f6;fill-opacity:1;stroke-width:2.02240562"
     rx="3.1135592"
     ry="2.9557111" />
  <path
     d="m 58.081921,13.210539 v 36.118789 a 4.0860692,3.8789176 0 0 1 -0.830282,2.364569 l -1.245424,1.576379 -1.037854,1.320218 -1.037852,-1.320218 -1.245424,-1.576379 A 4.0860692,3.8789176 0 0 1 51.854803,49.329328 V 13.210539 a 2.0819333,1.9763855 0 0 1 2.075706,-1.970475 h 2.075706 a 2.0819333,1.9763855 0 0 1 2.075706,1.970475 z"
     id="path18"
     style="fill:#ffff00;fill-opacity:1;stroke-width:2.02240562"
     inkscape:connector-curvature="0" />
  <path
     d="m 58.081921,46.708598 v 2.62073 a 4.0860692,3.8789176 0 0 1 -0.830282,2.364569 l -2.283278,2.896597 -2.283276,-2.896597 a 4.0860692,3.8789176 0 0 1 -0.830282,-2.364569 v -2.62073 z m 0,-33.498059 v 4.926185 h -6.227118 v -4.926185 a 2.0819333,1.9763855 0 0 1 2.075706,-1.970475 h 2.075706 a 2.0819333,1.9763855 0 0 1 2.075706,1.970475 z"
     id="path20"
     style="fill:#fe5627;fill-opacity:1;stroke-width:2.02240562"
     inkscape:connector-curvature="0" />
  <path
     d="M 41.476271,6.3138791 H 30.059887 A 6.4256807,6.0999178 0 0 0 24.476238,0.44186631 6.236999,5.9208017 0 0 0 17.60565,6.3138791 H 6.1892655 A 5.1911545,4.9279783 0 0 0 1,11.240064 v 47.291378 a 5.1911545,4.9279783 0 0 0 5.1892655,4.926185 H 41.476271 a 5.1911545,4.9279783 0 0 0 5.189266,-4.926185 V 11.240064 A 5.1911545,4.9279783 0 0 0 41.476271,6.3138791 Z M 15.529944,12.225301 V 9.2695901 a 1.0277029,0.97560142 0 0 1 1.037852,-0.9852369 h 2.075707 a 1.0277652,0.97566053 0 0 0 1.037853,-0.9852371 v -0.985237 a 4.1547543,3.9441206 0 0 1 1.369966,-2.9163017 4.0447211,3.8396658 0 0 1 3.217345,-1.0049417 4.3212675,4.102192 0 0 1 3.694757,3.9212434 1.274878,1.2102455 0 0 1 0.02075,0.2758663 v 0.7093707 a 1.0277652,0.97566053 0 0 0 1.037853,0.9852371 h 2.075706 a 1.0277029,0.97560142 0 0 1 1.037857,0.9852369 v 3.9409489 a 1.0277652,0.97566053 0 0 1 -1.03785,0.985236 H 16.567796 a 1.0277652,0.97566053 0 0 1 -1.037852,-0.985236 z m 1.037852,3.940948 H 31.09774 a 3.1094079,2.9517701 0 0 0 3.113559,-2.95571 v -0.985238 h 5.189266 a 1.0277029,0.97560142 0 0 1 1.037853,0.985238 v 36.45377 h -5.189265 a 3.1169634,2.9589427 0 0 0 -3.11356,2.95571 v 4.926186 H 8.2649718 A 1.0277652,0.97566053 0 0 1 7.2271187,56.560967 V 13.210539 a 1.0277029,0.97560142 0 0 1 1.0378531,-0.985238 h 5.1892662 v 0.985238 a 3.1094079,2.9517701 0 0 0 3.113558,2.95571 z m 22.403098,35.468533 -4.759595,4.518297 v -3.53306 a 1.0385589,0.985907 0 0 1 1.037854,-0.985237 z m 5.618937,6.89666 a 3.1094079,2.9517701 0 0 1 -3.11356,2.955711 H 6.1892655 A 3.1094079,2.9517701 0 0 1 3.0757062,58.531442 V 11.240064 A 3.1094079,2.9517701 0 0 1 6.1892655,8.2843532 H 13.641051 A 2.8769288,2.7310771 0 0 0 13.454238,9.2695901 V 10.254827 H 8.2649718 a 3.1094079,2.9517701 0 0 0 -3.1135593,2.955712 v 43.350428 a 3.1094079,2.9517701 0 0 0 3.1135593,2.955712 H 33.173447 a 1.0381022,0.98547349 0 0 0 0.393885,-0.07386 1.0139618,0.96255688 0 0 0 0.355631,-0.229717 l 8.271503,-7.852222 a 1.0115747,0.96029083 0 0 0 0.267766,-0.462311 0.95986882,0.91120632 0 0 0 0.02534,-0.121717 0.9853585,0.93540375 0 0 0 0.02655,-0.127312 V 13.210539 A 3.1094079,2.9517701 0 0 0 39.400565,10.254827 H 34.211299 V 9.2695901 A 2.8769288,2.7310771 0 0 0 34.024486,8.2843532 h 7.451785 a 3.1094079,2.9517701 0 0 1 3.11356,2.9557108 z M 23.832768,8.2843532 A 1.0378531,0.98523703 0 1 0 22.794915,7.2991161 1.0277652,0.97566053 0 0 0 23.832768,8.2843532 Z M 11.378531,24.048145 a 4.1514125,3.9409482 0 1 0 4.151413,-3.940948 4.1636799,3.9525937 0 0 0 -4.151413,3.940948 z m 4.151413,-1.970473 a 2.0757062,1.9704741 0 1 1 -2.075706,1.970473 2.0819333,1.9763855 0 0 1 2.075706,-1.970473 z m 0,21.675214 a 4.1514125,3.9409482 0 1 0 4.151412,3.940948 4.1555639,3.9448891 0 0 0 -4.151412,-3.940948 z m 0,5.911423 a 2.0757062,1.9704741 0 1 1 2.075706,-1.970475 2.0784047,1.9730357 0 0 1 -2.075706,1.970475 z m 0,-17.734267 a 4.1514125,3.9409482 0 1 0 4.151412,3.940948 4.1555639,3.9448891 0 0 0 -4.151412,-3.940948 z m 0,5.911422 a 2.0757062,1.9704741 0 1 1 2.075706,-1.970474 2.0784047,1.9730357 0 0 1 -2.075706,1.970474 z m 9.340677,-15.763792 h 10.378532 a 1.0378536,0.9852375 0 0 0 0,-1.970475 H 24.870621 a 1.0378536,0.9852375 0 0 0 0,1.970475 z m 0,5.911421 h 4.151413 a 1.0378531,0.98523703 0 0 0 0,-1.970473 h -4.151413 a 1.0378531,0.98523703 0 0 0 0,1.970473 z m 0,5.911423 h 10.378532 a 1.0378531,0.98523703 0 0 0 0,-1.970474 H 24.870621 a 1.0378531,0.98523703 0 0 0 0,1.970474 z m 0,5.911422 h 4.151413 a 1.0378533,0.98523724 0 0 0 0,-1.970474 h -4.151413 a 1.0378533,0.98523724 0 0 0 0,1.970474 z m 0,5.911423 h 10.378532 a 1.0378536,0.9852375 0 0 0 0,-1.970475 H 24.870621 a 1.0378536,0.9852375 0 0 0 0,1.970475 z m 0,5.911421 h 4.151413 a 1.0378531,0.98523703 0 0 0 0,-1.970473 h -4.151413 a 1.0378531,0.98523703 0 0 0 0,1.970473 z M 60.157627,18.136724 h -1.037853 v -4.926185 a 3.1094079,2.9517701 0 0 0 -3.113559,-2.955712 h -2.075706 a 3.1094079,2.9517701 0 0 0 -3.11356,2.955712 v 36.118789 a 5.2434829,4.9776539 0 0 0 1.037854,2.955711 l 2.075706,2.633401 v 1.642527 a 1.0378531,0.98523703 0 0 0 2.075706,0 v -1.642625 l 2.075706,-2.633401 a 5.2434829,4.9776539 0 0 0 1.037853,-2.955712 V 20.107197 h 1.037853 a 1.0385589,0.985907 0 0 1 1.037853,0.985238 v 7.881896 a 1.0378536,0.9852375 0 0 0 2.075707,0 v -7.881896 a 3.1169634,2.9589427 0 0 0 -3.11356,-2.955711 z m -3.113559,31.192604 a 3.1090758,2.9514548 0 0 1 -0.622712,1.773427 l -1.452995,1.852246 -1.452993,-1.852246 a 3.1090758,2.9514548 0 0 1 -0.622713,-1.773427 v -1.635494 h 4.151413 z m 0,-3.605967 H 52.892655 V 18.136724 h 4.151413 z m 0,-29.557112 h -4.151413 v -2.95571 a 1.0277029,0.97560142 0 0 1 1.037854,-0.985238 h 2.075706 a 1.0277029,0.97560142 0 0 1 1.037853,0.985238 z"
     id="path22"
     inkscape:connector-curvature="0"
     style="stroke-width:2.02240562" />
</svg>

<svg xmlns="http://www.w3.org/2000/svg" xmlns:xlink="http://www.w3.org/1999/xlink" width="64px" height="64px" viewBox="0 0 64 64" version="1.1">
<g id="surface1">
<path style=" stroke:none;fill-rule:nonzero;fill:rgb(69.803923%,53.725493%,40.000001%);fill-opacity:1;" d="M 6.1875 7.300781 L 41.476562 7.300781 C 43.769531 7.300781 45.628906 9.0625 45.628906 11.238281 L 45.628906 58.53125 C 45.628906 60.707031 43.769531 62.472656 41.476562 62.472656 L 6.1875 62.472656 C 3.898438 62.472656 2.039062 60.707031 2.039062 58.53125 L 2.039062 11.238281 C 2.039062 9.0625 3.898438 7.300781 6.1875 7.300781 Z M 6.1875 7.300781 "/>
<path style=" stroke:none;fill-rule:nonzero;fill:rgb(100%,100%,100%);fill-opacity:1;" d="M 33.171875 58.53125 L 8.265625 58.53125 C 7.117188 58.53125 6.1875 57.648438 6.1875 56.5625 L 6.1875 13.210938 C 6.1875 12.121094 7.117188 11.238281 8.265625 11.238281 L 39.402344 11.238281 C 40.546875 11.238281 41.476562 12.121094 41.476562 13.210938 L 41.476562 50.648438 "/>
<path style=" stroke:none;fill-rule:nonzero;fill:rgb(68.627453%,68.235296%,70.19608%);fill-opacity:1;" d="M 29.023438 7.300781 L 29.023438 6.59375 C 29.082031 3.996094 27.078125 1.769531 24.367188 1.414062 C 22.90625 1.269531 21.449219 1.722656 20.359375 2.65625 C 19.265625 3.589844 18.644531 4.917969 18.644531 6.3125 L 18.644531 7.300781 L 16.566406 7.300781 C 15.421875 7.300781 14.492188 8.179688 14.492188 9.269531 L 14.492188 13.210938 C 14.492188 14.296875 15.421875 15.179688 16.566406 15.179688 L 31.097656 15.179688 C 32.242188 15.179688 33.171875 14.296875 33.171875 13.210938 L 33.171875 9.269531 C 33.171875 8.179688 32.242188 7.300781 31.097656 7.300781 Z M 29.023438 7.300781 "/>
<path style=" stroke:none;fill-rule:nonzero;fill:rgb(100%,100%,100%);fill-opacity:1;" d="M 24.871094 7.300781 C 24.871094 7.84375 24.40625 8.285156 23.832031 8.285156 C 23.257812 8.285156 22.792969 7.84375 22.792969 7.300781 C 22.792969 6.753906 23.257812 6.3125 23.832031 6.3125 C 24.40625 6.3125 24.871094 6.753906 24.871094 7.300781 Z M 24.871094 7.300781 "/>
<path style=" stroke:none;fill-rule:nonzero;fill:rgb(68.627453%,68.235296%,70.19608%);fill-opacity:1;" d="M 33.171875 58.53125 L 33.171875 52.621094 C 33.171875 51.53125 34.101562 50.648438 35.25 50.648438 L 41.476562 50.648438 Z M 33.171875 58.53125 "/>
<path style=" stroke:none;fill-rule:nonzero;fill:rgb(34.509805%,33.725491%,94.117647%);fill-opacity:1;" d="M 18.644531 24.046875 C 18.644531 25.679688 17.25 27.003906 15.53125 27.003906 C 13.808594 27.003906 12.417969 25.679688 12.417969 24.046875 C 12.417969 22.414062 13.808594 21.09375 15.53125 21.09375 C 17.25 21.09375 18.644531 22.414062 18.644531 24.046875 Z M 18.644531 24.046875 "/>
<path style=" stroke:none;fill-rule:nonzero;fill:rgb(34.509805%,33.725491%,96.470588%);fill-opacity:1;" d="M 18.644531 47.695312 C 18.644531 49.328125 17.25 50.648438 15.53125 50.648438 C 13.808594 50.648438 12.417969 49.328125 12.417969 47.695312 C 12.417969 46.0625 13.808594 44.738281 15.53125 44.738281 C 17.25 44.738281 18.644531 46.0625 18.644531 47.695312 Z M 18.644531 47.695312 "/>
<path style=" stroke:none;fill-rule:nonzero;fill:rgb(34.509805%,33.725491%,96.470588%);fill-opacity:1;" d="M 18.644531 35.871094 C 18.644531 37.503906 17.25 38.828125 15.53125 38.828125 C 13.808594 38.828125 12.417969 37.503906 12.417969 35.871094 C 12.417969 34.238281 13.808594 32.914062 15.53125 32.914062 C 17.25 32.914062 18.644531 34.238281 18.644531 35.871094 Z M 18.644531 35.871094 "/>
<path style=" stroke:none;fill-rule:nonzero;fill:rgb(100%,100%,0%);fill-opacity:1;" d="M 58.082031 13.210938 L 58.082031 49.328125 C 58.085938 50.183594 57.792969 51.015625 57.25 51.695312 L 56.007812 53.269531 L 54.96875 54.589844 L 53.929688 53.269531 L 52.683594 51.695312 C 52.140625 51.015625 51.851562 50.183594 51.855469 49.328125 L 51.855469 13.210938 C 51.859375 12.125 52.785156 11.242188 53.929688 11.238281 L 56.007812 11.238281 C 57.152344 11.242188 58.078125 12.125 58.082031 13.210938 Z M 58.082031 13.210938 "/>
<path style=" stroke:none;fill-rule:nonzero;fill:rgb(99.607843%,33.725491%,15.294118%);fill-opacity:1;" d="M 58.082031 46.707031 L 58.082031 49.328125 C 58.085938 50.183594 57.792969 51.015625 57.25 51.695312 L 54.96875 54.589844 L 52.683594 51.695312 C 52.140625 51.015625 51.851562 50.183594 51.855469 49.328125 L 51.855469 46.707031 Z M 58.082031 13.210938 L 58.082031 18.136719 L 51.855469 18.136719 L 51.855469 13.210938 C 51.859375 12.125 52.785156 11.242188 53.929688 11.238281 L 56.007812 11.238281 C 57.152344 11.242188 58.078125 12.125 58.082031 13.210938 Z M 58.082031 13.210938 "/>
<path style=" stroke:none;fill-rule:nonzero;fill:rgb(0%,0%,0%);fill-opacity:1;" d="M 41.476562 6.3125 L 30.058594 6.3125 C 29.96875 3.320312 27.601562 0.832031 24.476562 0.441406 C 22.722656 0.273438 20.976562 0.8125 19.667969 1.933594 C 18.359375 3.050781 17.609375 4.640625 17.605469 6.3125 L 6.1875 6.3125 C 3.324219 6.316406 1 8.519531 1 11.238281 L 1 58.53125 C 1 61.25 3.324219 63.457031 6.1875 63.457031 L 41.476562 63.457031 C 44.339844 63.457031 46.664062 61.25 46.664062 58.53125 L 46.664062 11.238281 C 46.664062 8.519531 44.339844 6.316406 41.476562 6.3125 Z M 15.53125 12.226562 L 15.53125 9.269531 C 15.527344 9.007812 15.636719 8.753906 15.832031 8.570312 C 16.027344 8.382812 16.292969 8.28125 16.566406 8.285156 L 18.644531 8.285156 C 18.917969 8.285156 19.183594 8.183594 19.378906 8 C 19.574219 7.8125 19.683594 7.5625 19.679688 7.300781 L 19.679688 6.3125 C 19.683594 5.203125 20.183594 4.144531 21.050781 3.398438 C 21.917969 2.632812 23.09375 2.265625 24.269531 2.394531 C 26.335938 2.679688 27.894531 4.332031 27.964844 6.3125 C 27.980469 6.40625 27.988281 6.496094 27.984375 6.589844 L 27.984375 7.300781 C 27.980469 7.5625 28.089844 7.8125 28.285156 8 C 28.480469 8.183594 28.746094 8.285156 29.023438 8.285156 L 31.097656 8.285156 C 31.375 8.28125 31.640625 8.382812 31.835938 8.570312 C 32.03125 8.753906 32.136719 9.007812 32.136719 9.269531 L 32.136719 13.210938 C 32.136719 13.472656 32.03125 13.726562 31.835938 13.910156 C 31.640625 14.09375 31.375 14.199219 31.097656 14.195312 L 16.566406 14.195312 C 16.292969 14.199219 16.027344 14.09375 15.832031 13.910156 C 15.636719 13.726562 15.527344 13.472656 15.53125 13.210938 Z M 16.566406 16.167969 L 31.097656 16.167969 C 31.925781 16.167969 32.714844 15.855469 33.300781 15.300781 C 33.882812 14.746094 34.210938 13.996094 34.210938 13.210938 L 34.210938 12.226562 L 39.402344 12.226562 C 39.675781 12.222656 39.941406 12.324219 40.136719 12.511719 C 40.332031 12.695312 40.441406 12.949219 40.4375 13.210938 L 40.4375 49.664062 L 35.25 49.664062 C 33.53125 49.667969 32.136719 50.988281 32.136719 52.621094 L 32.136719 57.546875 L 8.265625 57.546875 C 7.988281 57.546875 7.722656 57.445312 7.527344 57.261719 C 7.332031 57.074219 7.222656 56.824219 7.226562 56.5625 L 7.226562 13.210938 C 7.222656 12.949219 7.332031 12.695312 7.527344 12.511719 C 7.722656 12.324219 7.988281 12.222656 8.265625 12.226562 L 13.453125 12.226562 L 13.453125 13.210938 C 13.453125 13.996094 13.78125 14.746094 14.363281 15.300781 C 14.949219 15.855469 15.742188 16.167969 16.566406 16.167969 Z M 38.972656 51.636719 L 34.210938 56.152344 L 34.210938 52.621094 C 34.210938 52.074219 34.675781 51.636719 35.25 51.636719 Z M 44.589844 58.53125 C 44.589844 59.316406 44.261719 60.066406 43.679688 60.621094 C 43.09375 61.175781 42.300781 61.488281 41.476562 61.488281 L 6.1875 61.488281 C 5.363281 61.488281 4.570312 61.175781 3.988281 60.621094 C 3.402344 60.066406 3.074219 59.316406 3.074219 58.53125 L 3.074219 11.238281 C 3.074219 10.457031 3.402344 9.703125 3.988281 9.148438 C 4.570312 8.59375 5.363281 8.285156 6.1875 8.285156 L 13.640625 8.285156 C 13.515625 8.597656 13.453125 8.933594 13.453125 9.269531 L 13.453125 10.253906 L 8.265625 10.253906 C 7.4375 10.253906 6.644531 10.566406 6.0625 11.121094 C 5.476562 11.675781 5.148438 12.425781 5.152344 13.210938 L 5.152344 56.5625 C 5.148438 57.34375 5.476562 58.097656 6.0625 58.652344 C 6.644531 59.207031 7.4375 59.519531 8.265625 59.515625 L 33.171875 59.515625 C 33.308594 59.515625 33.441406 59.492188 33.566406 59.441406 C 33.703125 59.390625 33.824219 59.3125 33.921875 59.214844 L 42.195312 51.359375 C 42.328125 51.234375 42.421875 51.074219 42.460938 50.898438 C 42.472656 50.859375 42.480469 50.816406 42.488281 50.777344 C 42.5 50.734375 42.507812 50.691406 42.515625 50.648438 L 42.515625 13.210938 C 42.515625 12.425781 42.1875 11.675781 41.601562 11.121094 C 41.019531 10.566406 40.226562 10.253906 39.402344 10.253906 L 34.210938 10.253906 L 34.210938 9.269531 C 34.214844 8.933594 34.148438 8.597656 34.023438 8.285156 L 41.476562 8.285156 C 42.300781 8.285156 43.09375 8.59375 43.679688 9.148438 C 44.261719 9.703125 44.589844 10.457031 44.589844 11.238281 Z M 23.832031 8.285156 C 24.40625 8.285156 24.871094 7.84375 24.871094 7.300781 C 24.871094 6.753906 24.40625 6.3125 23.832031 6.3125 C 23.257812 6.3125 22.792969 6.753906 22.792969 7.300781 C 22.792969 7.5625 22.902344 7.8125 23.097656 8 C 23.292969 8.183594 23.558594 8.285156 23.832031 8.285156 Z M 11.378906 24.046875 C 11.378906 26.226562 13.238281 27.988281 15.53125 27.988281 C 17.824219 27.988281 19.679688 26.226562 19.679688 24.046875 C 19.679688 21.871094 17.824219 20.105469 15.53125 20.105469 C 13.238281 20.113281 11.386719 21.875 11.378906 24.046875 Z M 15.53125 22.078125 C 16.675781 22.078125 17.605469 22.960938 17.605469 24.046875 C 17.605469 25.136719 16.675781 26.019531 15.53125 26.019531 C 14.382812 26.019531 13.453125 25.136719 13.453125 24.046875 C 13.457031 22.960938 14.386719 22.082031 15.53125 22.078125 Z M 15.53125 43.753906 C 13.238281 43.753906 11.378906 45.515625 11.378906 47.695312 C 11.378906 49.871094 13.238281 51.636719 15.53125 51.636719 C 17.824219 51.636719 19.679688 49.871094 19.679688 47.695312 C 19.679688 45.519531 17.820312 43.753906 15.53125 43.753906 Z M 15.53125 49.664062 C 14.382812 49.664062 13.453125 48.78125 13.453125 47.695312 C 13.453125 46.605469 14.382812 45.722656 15.53125 45.722656 C 16.675781 45.722656 17.605469 46.605469 17.605469 47.695312 C 17.605469 48.78125 16.675781 49.664062 15.53125 49.664062 Z M 15.53125 31.929688 C 13.238281 31.929688 11.378906 33.695312 11.378906 35.871094 C 11.378906 38.046875 13.238281 39.8125 15.53125 39.8125 C 17.824219 39.8125 19.679688 38.046875 19.679688 35.871094 C 19.679688 33.695312 17.820312 31.933594 15.53125 31.929688 Z M 15.53125 37.839844 C 14.382812 37.839844 13.453125 36.960938 13.453125 35.871094 C 13.453125 34.78125 14.382812 33.902344 15.53125 33.902344 C 16.675781 33.902344 17.605469 34.78125 17.605469 35.871094 C 17.605469 36.957031 16.675781 37.839844 15.53125 37.839844 Z M 24.871094 22.078125 L 35.25 22.078125 C 35.824219 22.078125 36.285156 21.636719 36.285156 21.09375 C 36.285156 20.546875 35.824219 20.105469 35.25 20.105469 L 24.871094 20.105469 C 24.296875 20.105469 23.832031 20.546875 23.832031 21.09375 C 23.832031 21.636719 24.296875 22.078125 24.871094 22.078125 Z M 24.871094 27.988281 L 29.023438 27.988281 C 29.59375 27.988281 30.058594 27.546875 30.058594 27.003906 C 30.058594 26.460938 29.59375 26.019531 29.023438 26.019531 L 24.871094 26.019531 C 24.296875 26.019531 23.832031 26.460938 23.832031 27.003906 C 23.832031 27.546875 24.296875 27.988281 24.871094 27.988281 Z M 24.871094 33.902344 L 35.25 33.902344 C 35.820312 33.898438 36.285156 33.460938 36.285156 32.914062 C 36.285156 32.371094 35.820312 31.929688 35.25 31.929688 L 24.871094 31.929688 C 24.296875 31.929688 23.832031 32.371094 23.832031 32.914062 C 23.832031 33.460938 24.296875 33.898438 24.871094 33.902344 Z M 24.871094 39.8125 L 29.023438 39.8125 C 29.59375 39.8125 30.058594 39.371094 30.058594 38.828125 C 30.058594 38.28125 29.59375 37.84375 29.023438 37.839844 L 24.871094 37.839844 C 24.296875 37.84375 23.832031 38.28125 23.832031 38.828125 C 23.832031 39.371094 24.296875 39.8125 24.871094 39.8125 Z M 24.871094 45.722656 L 35.25 45.722656 C 35.824219 45.722656 36.285156 45.28125 36.285156 44.738281 C 36.285156 44.195312 35.824219 43.753906 35.25 43.753906 L 24.871094 43.753906 C 24.296875 43.753906 23.832031 44.195312 23.832031 44.738281 C 23.832031 45.28125 24.296875 45.722656 24.871094 45.722656 Z M 24.871094 51.636719 L 29.023438 51.636719 C 29.59375 51.632812 30.058594 51.191406 30.058594 50.648438 C 30.058594 50.105469 29.59375 49.664062 29.023438 49.664062 L 24.871094 49.664062 C 24.296875 49.664062 23.832031 50.105469 23.832031 50.648438 C 23.832031 51.191406 24.296875 51.632812 24.871094 51.636719 Z M 60.15625 18.136719 L 59.121094 18.136719 L 59.121094 13.210938 C 59.121094 12.425781 58.792969 11.675781 58.210938 11.121094 C 57.625 10.566406 56.832031 10.253906 56.007812 10.253906 L 53.929688 10.253906 C 53.105469 10.253906 52.3125 10.566406 51.726562 11.121094 C 51.144531 11.675781 50.816406 12.425781 50.816406 13.210938 L 50.816406 49.328125 C 50.820312 50.394531 51.183594 51.429688 51.855469 52.285156 L 53.929688 54.917969 L 53.929688 56.5625 C 53.929688 57.105469 54.394531 57.546875 54.96875 57.546875 C 55.542969 57.546875 56.007812 57.105469 56.007812 56.5625 L 56.007812 54.917969 L 58.082031 52.285156 C 58.753906 51.429688 59.117188 50.394531 59.121094 49.328125 L 59.121094 20.105469 L 60.15625 20.105469 C 60.730469 20.109375 61.195312 20.546875 61.195312 21.09375 L 61.195312 28.972656 C 61.195312 29.519531 61.660156 29.960938 62.234375 29.960938 C 62.804688 29.960938 63.269531 29.519531 63.269531 28.972656 L 63.269531 21.09375 C 63.269531 19.460938 61.875 18.136719 60.15625 18.136719 Z M 57.042969 49.328125 C 57.042969 49.96875 56.824219 50.589844 56.421875 51.101562 L 54.96875 52.953125 L 53.515625 51.101562 C 53.109375 50.589844 52.890625 49.96875 52.894531 49.328125 L 52.894531 47.695312 L 57.042969 47.695312 Z M 57.042969 45.722656 L 52.894531 45.722656 L 52.894531 18.136719 L 57.042969 18.136719 Z M 57.042969 16.167969 L 52.894531 16.167969 L 52.894531 13.210938 C 52.890625 12.949219 53 12.695312 53.195312 12.511719 C 53.390625 12.324219 53.65625 12.222656 53.929688 12.226562 L 56.007812 12.226562 C 56.28125 12.222656 56.546875 12.324219 56.742188 12.511719 C 56.9375 12.695312 57.046875 12.949219 57.042969 13.210938 Z M 57.042969 16.167969 "/>
</g>
</svg>
